assets/icons/emote/angry-filled.svg

<?xml version="1.0" encoding="UTF-8" standalone="no"?>
<svg
   viewBox="0 0 24 24"
   width="24"
   height="24"
   version="1.1"
   id="svg4"
   sodipodi:docname="angry-filled.svg"
   inkscape:version="1.2 (1:1.2.1+202207142221+cd75a1ee6d)"
   xmlns:inkscape="http://www.inkscape.org/namespaces/inkscape"
   xmlns:sodipodi="http://sodipodi.sourceforge.net/DTD/sodipodi-0.dtd"
   xmlns="http://www.w3.org/2000/svg"
   xmlns:svg="http://www.w3.org/2000/svg"
   xmlns:rdf="http://www.w3.org/1999/02/22-rdf-syntax-ns#"
   xmlns:cc="http://creativecommons.org/ns#"
   xmlns:dc="http://purl.org/dc/elements/1.1/">
  <metadata
     id="metadata10">
    <rdf:RDF>
      <cc:Work
         rdf:about="">
        <dc:format>image/svg+xml</dc:format>
        <dc:type
           rdf:resource="http://purl.org/dc/dcmitype/StillImage" />
      </cc:Work>
    </rdf:RDF>
  </metadata>
  <defs
     id="defs8" />
  <sodipodi:namedview
     pagecolor="#ffffff"
     bordercolor="#666666"
     borderopacity="1"
     objecttolerance="10"
     gridtolerance="10"
     guidetolerance="10"
     inkscape:pageopacity="0"
     inkscape:pageshadow="2"
     inkscape:window-width="1920"
     inkscape:window-height="1016"
     id="namedview6"
     showgrid="true"
     inkscape:zoom="13.75"
     inkscape:cx="-6.8363636"
     inkscape:cy="10.872727"
     inkscape:window-x="0"
     inkscape:window-y="0"
     inkscape:window-maximized="1"
     inkscape:current-layer="svg4"
     inkscape:pagecheckerboard="0"
     inkscape:showpageshadow="2"
     inkscape:deskcolor="#d1d1d1">
    <inkscape:grid
       type="xygrid"
       id="grid1412" />
  </sodipodi:namedview>
  <path
     id="path993"
     style="fill:#808080;fill-opacity:1;fill-rule:evenodd;stroke:none;stroke-width:0.75;stroke-linecap:square;stroke-linejoin:round;stroke-opacity:1"
     d="M 11.953125 2.625 A 9.3749993 9.3749993 0 0 0 2.625 12 A 9.3749993 9.3749993 0 0 0 12 21.375 A 9.3749993 9.3749993 0 0 0 21.375 12 A 9.3749993 9.3749993 0 0 0 12 2.625 A 9.3749993 9.3749993 0 0 0 11.953125 2.625 z M 6.375 7.8203125 C 6.375 7.8203125 6.9675021 8.86875 7.9375 8.875 L 10.125 8.875 L 10.125 10.164062 C 10.125 10.859062 9.291248 11.414063 8.25 11.414062 C 7.2087521 11.414062 6.375 10.859062 6.375 10.164062 L 6.375 7.8203125 z M 17.625 7.8203125 L 17.625 10.164062 C 17.625 10.859062 16.791248 11.414063 15.75 11.414062 C 14.708752 11.414062 13.875 10.859062 13.875 10.164062 L 13.875 8.875 L 16.023438 8.875 C 16.993436 8.86875 17.625 7.8203125 17.625 7.8203125 z M 9.375 13.875 L 14.625 13.875 C 14.902 13.875 15.125 14.098 15.125 14.375 L 15.125 14.625 C 15.125 14.902 14.902 15.125 14.625 15.125 L 9.375 15.125 C 9.0980006 15.125 8.875 14.902 8.875 14.625 L 8.875 14.375 C 8.875 14.098 9.0980006 13.875 9.375 13.875 z " />
</svg>

<svg width="24" height="24" xmlns="http://www.w3.org/2000/svg"><path style="fill:gray;fill-opacity:1;stroke:none;stroke-width:.75;stroke-linecap:square;stroke-linejoin:round;stroke-opacity:1" d="M11.953 2.625A9.375 9.375 0 0 0 2.625 12 9.375 9.375 0 0 0 12 21.375 9.375 9.375 0 0 0 21.375 12 9.375 9.375 0 0 0 12 2.625a9.375 9.375 0 0 0-.047 0zM6.375 7.82s.593 1.049 1.563 1.055h2.187v1.29c0 .694-.834 1.25-1.875 1.25s-1.875-.556-1.875-1.25V7.82zm11.25 0v2.344c0 .695-.834 1.25-1.875 1.25s-1.875-.555-1.875-1.25V8.875h2.148c.97-.006 1.602-1.055 1.602-1.055zm-8.25 6.055h5.25c.277 0 .5.223.5.5v.25c0 .277-.223.5-.5.5h-5.25a.499.499 0 0 1-.5-.5v-.25c0-.277.223-.5.5-.5z"/></svg>
